X: 38377
T: Star Above The Garter, The
R: slide
M: 12/8
K: Dmixolydian
|:d2B BAG A3 ABA|G2E c2B BAG ABc|
d2B BAG A3 ABA|G2E c2E D3 D3:|
|:d2e f2a g2e d2B|G2B d2B BAG ABc|
d2e f2a g2e d2B|G2E c2E D3 D3:|

